packages/bezier-icons/icons/face-with-tears.svg

<svg width="24" height="24" viewBox="0 0 24 24" fill="none" xmlns="http://www.w3.org/2000/svg">
<path d="M14.015 9.72032C14.015 11.2153 14.368 11.8253 15.214 11.8253C16.059 11.8253 16.412 11.2153 16.412 9.72032C16.412 8.22532 16.059 7.61432 15.214 7.61432C14.368 7.61432 14.015 8.22532 14.015 9.72032Z" fill="#313234"/>
<path fill-rule="evenodd" clip-rule="evenodd" d="M12.0002 2.00012C6.47718 2.00012 2.00018 6.47812 2.00018 12.0001C2.00018 17.5221 6.47718 22.0001 12.0002 22.0001C17.5222 22.0001 22.0002 17.5221 22.0002 12.0001C22.0002 6.47812 17.5222 2.00012 12.0002 2.00012ZM12.0002 4.00012C16.4112 4.00012 20.0002 7.58912 20.0002 12.0001C20.0002 16.4111 16.4112 20.0001 12.0002 20.0001C11.2977 20.0001 10.6161 19.9091 9.96661 19.7383C10.0385 19.6786 10.1083 19.615 10.1757 19.5476C10.6704 19.053 10.9681 18.4206 11.0516 17.7596C12.3995 18.0489 13.8529 17.714 14.9562 16.7546C15.3729 16.3922 15.417 15.7606 15.0546 15.3438C14.6922 14.9271 14.0606 14.883 13.6438 15.2454C12.7106 16.0569 11.3267 16.065 10.3845 15.2696L8.65097 11.8197C8.6946 11.8235 8.73969 11.8253 8.78628 11.8253C9.63128 11.8253 9.98428 11.2153 9.98428 9.72032C9.98428 8.22532 9.63128 7.61432 8.78628 7.61432C7.94128 7.61432 7.58728 8.22532 7.58728 9.72032C7.58728 10.2818 7.63721 10.7184 7.74431 11.0447L5.25693 15.9951C5.22781 16.0531 5.20067 16.1117 5.1755 16.1708C4.43018 14.9556 4.00018 13.5271 4.00018 12.0001C4.00018 7.58912 7.58818 4.00012 12.0002 4.00012ZM6.88518 16.8626L8.00205 14.638L9.12093 16.8631C9.3628 17.3451 9.26889 17.9278 8.88777 18.3089C8.39983 18.7962 7.60606 18.7962 7.11774 18.3085C6.737 17.9278 6.6431 17.3451 6.88518 16.8626Z" fill="#313234"/>
</svg>

<svg xmlns="http://www.w3.org/2000/svg" width="24" height="24" fill="none" viewBox="0 0 24 24"><path fill="#313234" d="M14.015 9.72c0 1.495.353 2.105 1.199 2.105.845 0 1.198-.61 1.198-2.105s-.353-2.106-1.198-2.106c-.846 0-1.199.611-1.199 2.106"/><path fill="#313234" fill-rule="evenodd" d="M12 2C6.477 2 2 6.478 2 12s4.477 10 10 10 10-4.478 10-10S17.522 2 12 2m0 2c4.411 0 8 3.59 8 8s-3.589 8-8 8a8 8 0 0 1-2.033-.262 3.07 3.07 0 0 0 1.085-1.978 4.5 4.5 0 0 0 3.904-1.005 1 1 0 0 0-1.312-1.51 2.505 2.505 0 0 1-3.26.025l-1.733-3.45q.066.005.135.005c.845 0 1.198-.61 1.198-2.105s-.353-2.106-1.198-2.106-1.199.611-1.199 2.106c0 .562.05.998.157 1.325l-2.487 4.95a3 3 0 0 0-.081.176A7.95 7.95 0 0 1 4 12c0-4.412 3.588-8 8-8M6.885 16.863l1.117-2.225 1.119 2.225a1.251 1.251 0 1 1-2.236 0" clip-rule="evenodd"/></svg>
